X: 2111
T: CAPTAIN BYNG
C:
Q: "Reel."
R: Reel.
%R: reel
B: James Kerr "Merry Melodies" v.2 p.14 #111
Z: 2016 John Chambers <jc:trillian.mit.edu>
M: C
L: 1/8
K: G
ud |\
vgfgd BGGB | cAag fdef |\
gfgd BGGB | cAdF G3 ::\
uc |\
BGdG BGGB |
cAeA cAAc |\
[1 BGdG BGGB | cAdF G3 :|\
[2 BGdB ecdB | cAdF G3 |]
